www/assets/icons/wb_sunny.svg

<svg width="24" height="24" viewBox="0 0 24 24" xmlns="http://www.w3.org/2000/svg" fill='currentColor'><path d="M6.76 5.3398L4.96 3.5498L3.55 4.9598L5.34 6.7498L6.76 5.3398ZM4 10.9998H1V12.9998H4V10.9998ZM13 1.0498H11V3.9998H13V1.0498ZM20.45 4.9598L19.04 3.5498L17.25 5.3398L18.66 6.7498L20.45 4.9598ZM17.24 18.6598L19.03 20.4598L20.44 19.0498L18.64 17.2598L17.24 18.6598ZM20 10.9998V12.9998H23V10.9998H20ZM12 5.9998C8.69 5.9998 6 8.6898 6 11.9998C6 15.3098 8.69 17.9998 12 17.9998C15.31 17.9998 18 15.3098 18 11.9998C18 8.6898 15.31 5.9998 12 5.9998ZM11 22.9498H13V19.9998H11V22.9498ZM3.55 19.0398L4.96 20.4498L6.75 18.6498L5.34 17.2398L3.55 19.0398Z"/></svg>

<svg xmlns="http://www.w3.org/2000/svg" width="24" height="24" viewBox="0 0 24 24" fill='currentColor'><path d="m6.76 5.34-1.8-1.79-1.41 1.41 1.79 1.79zM4 11H1v2h3zm9-9.95h-2V4h2zm7.45 3.91-1.41-1.41-1.79 1.79 1.41 1.41zm-3.21 13.7 1.79 1.8 1.41-1.41-1.8-1.79zM20 11v2h3v-2zm-8-5c-3.31 0-6 2.69-6 6s2.69 6 6 6 6-2.69 6-6-2.69-6-6-6m-1 16.95h2V20h-2zm-7.45-3.91 1.41 1.41 1.79-1.8-1.41-1.41z"/></svg>
